symbols/web/signal_wifi_statusbar_not_connected/materialsymbolsrounded/signal_wifi_statusbar_not_connected_24px.svg

<svg xmlns="http://www.w3.org/2000/svg" height="24" width="24"><path d="M12 20.575q-.2 0-.375-.063-.175-.062-.325-.212L.725 9.725q-.3-.3-.3-.725t.3-.7Q3.05 6.2 5.95 5.1 8.85 4 12 4t6.05 1.1q2.9 1.1 5.225 3.2.3.275.3.7 0 .425-.3.725L23 10q-.7-.9-1.737-1.45Q20.225 8 19 8q-2.075 0-3.537 1.462Q14 10.925 14 13q0 1.225.55 2.262Q15.1 16.3 16 17l-3.3 3.3q-.15.15-.325.212-.175.063-.375.063Zm7.025-3.775q-.35 0-.563-.238-.212-.237-.162-.537.075-.575.35-.988.275-.412.925-1.062.525-.525.675-.787.15-.263.15-.663 0-.45-.35-.788-.35-.337-.925-.337-.35 0-.687.162-.338.163-.588.463-.225.275-.487.375-.263.1-.538-.025-.3-.125-.412-.4-.113-.275.037-.525.425-.675 1.112-1.063Q18.25 10 19.125 10q1.225 0 2 .725.775.725.775 1.85 0 .575-.25 1.025-.25.45-.95 1.15-.425.425-.612.688-.188.262-.238.587-.075.35-.3.562-.225.213-.525.213ZM19 20q-.425 0-.738-.312-.312-.313-.312-.738t.312-.738q.313-.312.738-.312t.738.312q.312.313.312.738t-.312.738Q19.425 20 19 20Z"/></svg>

<svg xmlns="http://www.w3.org/2000/svg" height="24" width="24"><path d="M12 20.575Q11.8 20.575 11.625 20.512Q11.45 20.45 11.3 20.3L0.725 9.725Q0.425 9.425 0.425 9Q0.425 8.575 0.725 8.3Q3.05 6.2 5.95 5.1Q8.85 4 12 4Q15.15 4 18.05 5.1Q20.95 6.2 23.275 8.3Q23.575 8.575 23.575 9Q23.575 9.425 23.275 9.725L23 10Q22.3 9.1 21.263 8.55Q20.225 8 19 8Q16.925 8 15.463 9.462Q14 10.925 14 13Q14 14.225 14.55 15.262Q15.1 16.3 16 17L12.7 20.3Q12.55 20.45 12.375 20.512Q12.2 20.575 12 20.575ZM19.025 16.8Q18.675 16.8 18.462 16.562Q18.25 16.325 18.3 16.025Q18.375 15.45 18.65 15.037Q18.925 14.625 19.575 13.975Q20.1 13.45 20.25 13.188Q20.4 12.925 20.4 12.525Q20.4 12.075 20.05 11.737Q19.7 11.4 19.125 11.4Q18.775 11.4 18.438 11.562Q18.1 11.725 17.85 12.025Q17.625 12.3 17.363 12.4Q17.1 12.5 16.825 12.375Q16.525 12.25 16.413 11.975Q16.3 11.7 16.45 11.45Q16.875 10.775 17.562 10.387Q18.25 10 19.125 10Q20.35 10 21.125 10.725Q21.9 11.45 21.9 12.575Q21.9 13.15 21.65 13.6Q21.4 14.05 20.7 14.75Q20.275 15.175 20.088 15.438Q19.9 15.7 19.85 16.025Q19.775 16.375 19.55 16.587Q19.325 16.8 19.025 16.8ZM19 20Q18.575 20 18.262 19.688Q17.95 19.375 17.95 18.95Q17.95 18.525 18.262 18.212Q18.575 17.9 19 17.9Q19.425 17.9 19.738 18.212Q20.05 18.525 20.05 18.95Q20.05 19.375 19.738 19.688Q19.425 20 19 20Z"/></svg>
